Obsidian-SemiLight/actions/16s/filename-space-amarok.svg

<svg viewBox="0 0 16 16" xmlns="http://www.w3.org/2000/svg"><path d="m3 11v1 1h10v-1-1h-1v1h-8v-1z" fill="#4d4d4d"/></svg>

<svg xmlns="http://www.w3.org/2000/svg" viewBox="0 0 16 16">
  <defs id="defs3051">
    <style type="text/css" id="current-color-scheme">
      .ColorScheme-Text {
        color:#4d4d4d;
      }
      </style>
  </defs>
 <path style="fill:currentColor;fill-opacity:1;stroke:none" 
     d="M 3 11 L 3 12 L 3 13 L 13 13 L 13 12 L 13 11 L 12 11 L 12 12 L 4 12 L 4 11 L 3 11 z "
     class="ColorScheme-Text"
     />
</svg>
